X: 299
T: Red Prairie Dawn
B: canberra pickers and fiddlers
B: tunes
M:4/4
L:1/8
R: reel
Q: 1/4=100
K:G
V:1 
|:d2 B2 A2 GA|B4  E3F|G2E2 DEGA|BdeB dBAG|
d2 B2 A2 GA|B4  E3F|G2E2 DEGA|BGAF G4:|
|:B4  E3 F|G4 B,3 A,|G,2 G2 DEGA|BdeB dBAG|
B4  E3 F|G4 B,3 A,|G,2 G2 DEGA|BGAF G4:|
% abcbook-tune_id 63da5934caeed8dcfd894613
% abcbook-tune_composer_id 
% abcbook-link-0 https://www.youtube.com/watch?v=xF90s_DehPQ
% abcbook-boost 0
% abcbook-difficulty 0
% abcbook-tags canberra pickers and fiddlers,old time tunes,© free
% abcbook-tablature 
% abcbook-transpose 
% abcbook-tuning GDAD
% abcbook-lastupdated 1722908375933
% abcbook-src-url https://tunebook.net/scrape/tunes.abc
% abcbook-soundfonts 
% abcbook-repeats 1
%%gchordfont "itim-music,Itim" 20

